Suru++-Ubuntu/status/24/insync-action.svg

<svg width="24" height="24" version="1.1" xmlns="http://www.w3.org/2000/svg">
 <defs>
  <style type="text/css">.ColorScheme-Text { color:#5c616c; } .ColorScheme-Highlight { color:#5294e2; } .ColorScheme-ButtonBackground { color:#d3dae3; }</style>
 </defs>
 <g transform="matrix(1.3332542 0 0 1.3332542 13.03698 -.39009491)" style="fill:#ffffff">
  <rect x="1.0488889" y="14.005593" width="1.9565207" height="3.9130414" style="fill:#ffffff"/>
  <circle cx="2.0271518" cy="11.722975" r=".97826034" style="fill:#ffffff"/>
  <path d="m1.7003776 5.5271194c-3.233954 3e-7 -5.869154 2.6351863-5.86914 5.8691406v0.652344h1.304687v-0.652344c-1e-5 -2.5290309 2.035422-4.5644528 4.564453-4.5644531h0.652344v-1.3046875z" style="fill:#ffffff"/>
  <path d="m1.7003776 8.1364944c-1.7932078 0-3.259773 1.4665576-3.259765 3.2597656v0.652344h1.3046871v-0.652344c-4.4e-6 -1.088285 0.8667935-1.9550781 1.9550779-1.9550781h0.652344v-1.3046875z" style="fill:#ffffff"/>
  <path d="m1.7003776 2.9177444c-4.674684 6e-7 -8.478512 3.8038309-8.478515 8.4785156v0.652344h1.304687v-0.652344c3e-6 -3.9697635 3.204065-7.1738276 7.173828-7.1738281h0.652344v-1.3046875z" style="fill:#ffffff"/>
  <rect x="1.0488889" y="14.005593" width="1.9565207" height="3.9130414" style="fill:#ffffff"/>
  <circle cx="2.0271518" cy="11.722975" r=".97826034" style="fill:#ffffff"/>
 </g>
 <path d="m6.5000001 11.5c-3.3105944 0-6.0000001 2.689406-6.0000001 6 0 3.310595 2.6894057 6 6.0000001 6s6.0000049-2.689405 5.9999999-6c0-3.310594-2.6894055-6-5.9999999-6z" style="fill:#cb4848"/>
 <path d="m5.375 19v-6h2.25v6z" style="fill:#ffffff"/>
 <path d="m5.375 20.5v1.5h2.25v-1.5z" style="fill:#ffffff"/>
</svg>

<?xml version="1.0" encoding="UTF-8" standalone="no"?>
<svg
   xmlns:dc="http://purl.org/dc/elements/1.1/"
   xmlns:cc="http://creativecommons.org/ns#"
   xmlns:rdf="http://www.w3.org/1999/02/22-rdf-syntax-ns#"
   xmlns:svg="http://www.w3.org/2000/svg"
   xmlns="http://www.w3.org/2000/svg"
   xmlns:sodipodi="http://sodipodi.sourceforge.net/DTD/sodipodi-0.dtd"
   xmlns:inkscape="http://www.inkscape.org/namespaces/inkscape"
   height="24"
   width="24"
   version="1.1"
   id="svg2"
   sodipodi:docname="6.svg"
   inkscape:version="0.92.3 (2405546, 2018-03-11)">
  <metadata
     id="metadata8">
    <rdf:RDF>
      <cc:Work
         rdf:about="">
        <dc:format>image/svg+xml</dc:format>
        <dc:type
           rdf:resource="http://purl.org/dc/dcmitype/StillImage" />
        <dc:title></dc:title>
      </cc:Work>
    </rdf:RDF>
  </metadata>
  <sodipodi:namedview
     pagecolor="#ffffff"
     bordercolor="#666666"
     borderopacity="1"
     objecttolerance="10"
     gridtolerance="10"
     guidetolerance="10"
     inkscape:pageopacity="0"
     inkscape:pageshadow="2"
     inkscape:window-width="1916"
     inkscape:window-height="959"
     id="namedview6"
     showgrid="false"
     inkscape:zoom="23.855435"
     inkscape:cx="3.783843"
     inkscape:cy="11.731307"
     inkscape:window-x="0"
     inkscape:window-y="34"
     inkscape:window-maximized="0"
     inkscape:current-layer="svg2" />
  <defs
     id="defs8">
    <style
       type="text/css"
       id="current-color-scheme">
   .ColorScheme-Text { color:#5c616c; } .ColorScheme-Highlight { color:#5294e2; } .ColorScheme-ButtonBackground { color:#d3dae3; }
  </style>
  </defs>
  <g
     id="g1500"
     transform="matrix(1.3332542,0,0,1.3332542,13.03698,-0.39009491)"
     style="fill:#ffffff;fill-opacity:1">
    <g
       transform="translate(-521.77831,49.618695)"
       style="display:inline;fill:#ffffff;fill-opacity:1"
       label="status"
       id="layer9" />
    <g
       style="fill:#ffffff;fill-opacity:1"
       transform="translate(-280.77811,-317.38131)"
       id="layer2" />
    <g
       transform="translate(-280.77811,-317.38131)"
       style="display:inline;fill:#ffffff;fill-opacity:1"
       id="g1812" />
    <g
       style="fill:#ffffff;fill-opacity:1"
       transform="translate(-280.77811,-317.38131)"
       id="g6217" />
    <g
       style="fill:#ffffff;fill-opacity:1"
       transform="translate(-280.77811,-317.38131)"
       id="layer1" />
    <rect
       id="rect961"
       y="14.005593"
       x="1.0488889"
       height="3.9130414"
       width="1.9565207"
       style="fill:#ffffff;fill-opacity:1;stroke-width:0.32608679" />
    <circle
       id="circle963"
       r="0.97826034"
       cy="11.722975"
       cx="2.0271518"
       style="fill:#ffffff;fill-opacity:1;stroke-width:0.32608679" />
    <path
       inkscape:connector-curvature="0"
       id="path894"
       d="m 1.7003776,5.5271194 c -3.233954,3e-7 -5.869154,2.6351863 -5.86914,5.8691406 v 0.652344 h 1.304687 V 11.39626 c -1e-5,-2.5290309 2.03542201,-4.5644528 4.564453,-4.5644531 h 0.652344 V 5.5271194 Z"
       style="color:#000000;font-style:normal;font-variant:normal;font-weight:normal;font-stretch:normal;font-size:medium;line-height:normal;font-family:sans-serif;font-variant-ligatures:normal;font-variant-position:normal;font-variant-caps:normal;font-variant-numeric:normal;font-variant-alternates:normal;font-feature-settings:normal;text-indent:0;text-align:start;text-decoration:none;text-decoration-line:none;text-decoration-style:solid;text-decoration-color:#000000;letter-spacing:normal;word-spacing:normal;text-transform:none;writing-mode:lr-tb;direction:ltr;text-orientation:mixed;dominant-baseline:auto;baseline-shift:baseline;text-anchor:start;white-space:normal;shape-padding:0;clip-rule:nonzero;display:inline;overflow:visible;visibility:visible;opacity:1;isolation:auto;mix-blend-mode:normal;color-interpolation:sRGB;color-interpolation-filters:linearRGB;solid-color:#000000;solid-opacity:1;vector-effect:none;fill:#ffffff;fill-opacity:1;fill-rule:nonzero;stroke:none;stroke-width:1.30434716;stroke-linecap:square;stroke-linejoin:miter;stroke-miterlimit:4;stroke-dasharray:none;stroke-dashoffset:0;stroke-opacity:1;color-rendering:auto;image-rendering:auto;shape-rendering:auto;text-rendering:auto;enable-background:accumulate" />
    <path
       inkscape:connector-curvature="0"
       id="path896"
       d="m 1.7003776,8.1364944 c -1.79320779,0 -3.259773,1.4665576 -3.259765,3.2597656 v 0.652344 h 1.30468711 V 11.39626 c -4.4e-6,-1.088285 0.8667935,-1.9550781 1.95507789,-1.9550781 h 0.652344 V 8.1364944 Z"
       style="color:#000000;font-style:normal;font-variant:normal;font-weight:normal;font-stretch:normal;font-size:medium;line-height:normal;font-family:sans-serif;font-variant-ligatures:normal;font-variant-position:normal;font-variant-caps:normal;font-variant-numeric:normal;font-variant-alternates:normal;font-feature-settings:normal;text-indent:0;text-align:start;text-decoration:none;text-decoration-line:none;text-decoration-style:solid;text-decoration-color:#000000;letter-spacing:normal;word-spacing:normal;text-transform:none;writing-mode:lr-tb;direction:ltr;text-orientation:mixed;dominant-baseline:auto;baseline-shift:baseline;text-anchor:start;white-space:normal;shape-padding:0;clip-rule:nonzero;display:inline;overflow:visible;visibility:visible;opacity:1;isolation:auto;mix-blend-mode:normal;color-interpolation:sRGB;color-interpolation-filters:linearRGB;solid-color:#000000;solid-opacity:1;vector-effect:none;fill:#ffffff;fill-opacity:1;fill-rule:nonzero;stroke:none;stroke-width:1.30434716;stroke-linecap:square;stroke-linejoin:miter;stroke-miterlimit:4;stroke-dasharray:none;stroke-dashoffset:0;stroke-opacity:1;color-rendering:auto;image-rendering:auto;shape-rendering:auto;text-rendering:auto;enable-background:accumulate" />
    <path
       inkscape:connector-curvature="0"
       id="path898"
       d="m 1.7003776,2.9177444 c -4.674684,6e-7 -8.478512,3.8038309 -8.478515,8.4785156 v 0.652344 h 1.304687 V 11.39626 c 3e-6,-3.9697635 3.204065,-7.1738276 7.173828,-7.1738281 h 0.652344 V 2.9177444 Z"
       style="color:#000000;font-style:normal;font-variant:normal;font-weight:normal;font-stretch:normal;font-size:medium;line-height:normal;font-family:sans-serif;font-variant-ligatures:normal;font-variant-position:normal;font-variant-caps:normal;font-variant-numeric:normal;font-variant-alternates:normal;font-feature-settings:normal;text-indent:0;text-align:start;text-decoration:none;text-decoration-line:none;text-decoration-style:solid;text-decoration-color:#000000;letter-spacing:normal;word-spacing:normal;text-transform:none;writing-mode:lr-tb;direction:ltr;text-orientation:mixed;dominant-baseline:auto;baseline-shift:baseline;text-anchor:start;white-space:normal;shape-padding:0;clip-rule:nonzero;display:inline;overflow:visible;visibility:visible;opacity:1;isolation:auto;mix-blend-mode:normal;color-interpolation:sRGB;color-interpolation-filters:linearRGB;solid-color:#000000;solid-opacity:1;vector-effect:none;fill:#ffffff;fill-opacity:1;fill-rule:nonzero;stroke:none;stroke-width:1.30434716;stroke-linecap:square;stroke-linejoin:miter;stroke-miterlimit:4;stroke-dasharray:none;stroke-dashoffset:0;stroke-opacity:1;color-rendering:auto;image-rendering:auto;shape-rendering:auto;text-rendering:auto;enable-background:accumulate" />
    <rect
       style="fill:#ffffff;fill-opacity:1;stroke-width:0.32608679"
       width="1.9565207"
       height="3.9130414"
       x="1.0488889"
       y="14.005593"
       id="rect900" />
    <circle
       style="fill:#ffffff;fill-opacity:1;stroke-width:0.32608679"
       cx="2.0271518"
       cy="11.722975"
       r="0.97826034"
       id="circle902" />
  </g>
  <g
     style="display:inline"
     id="g3532-1"
     transform="matrix(0.84258135,0,-0.53523895,0.94555012,79.47551,6.891414)" />
  <g
     style="display:inline;fill:#fce94f;stroke:none"
     id="g3557-05"
     transform="matrix(0.84258135,0,-0.53523895,0.94555012,79.47551,6.891414)" />
  <g
     id="layer10"
     inkscape:label="devices"
     style="display:inline"
     transform="matrix(0.85714282,0,0,0.85714282,-445.93282,389.69606)" />
  <g
     id="layer13"
     inkscape:label="places"
     style="display:inline"
     transform="matrix(0.85714282,0,0,0.85714282,-445.93282,389.69606)" />
  <g
     id="layer14"
     inkscape:label="mimes"
     transform="matrix(0.85714282,0,0,0.85714282,-445.93282,389.69606)" />
  <g
     id="layer15"
     inkscape:label="emblems"
     style="display:inline"
     transform="matrix(0.85714282,0,0,0.85714282,-445.93282,389.69606)" />
  <g
     id="g71291"
     inkscape:label="emotes"
     style="display:inline"
     transform="matrix(0.85714282,0,0,0.85714282,-445.93282,389.69606)" />
  <g
     id="g4953"
     inkscape:label="categories"
     style="display:inline"
     transform="matrix(0.85714282,0,0,0.85714282,-445.93282,389.69606)" />
  <g
     id="layer12"
     inkscape:label="actions"
     style="display:inline"
     transform="matrix(0.85714282,0,0,0.85714282,-445.93282,389.69606)" />
  <g
     style="opacity:0.3;fill:#ffffff;fill-opacity:1"
     id="g5"
     transform="matrix(0.02502953,0,0,0.02502953,-20.798086,12.372284)" />
  <g
     id="g3768"
     style="fill:#dfdbd2;fill-opacity:1"
     transform="matrix(0.02502953,0,0,0.02502953,-20.77332,12.378284)" />
  <g
     transform="matrix(0.8848854,0,0,0.8848854,-74.681555,-685.39094)"
     id="layer12-9"
     style="color:#000000;display:inline;overflow:visible;visibility:visible;opacity:0.3;fill:#ffffff;fill-opacity:1;fill-rule:nonzero;stroke:none;stroke-width:1.70000005;marker:none;enable-background:accumulate" />
  <g
     style="display:inline"
     id="g3532-1-6"
     transform="matrix(0.84258135,0,-0.53523892,0.94555005,77.285412,3.5539521)" />
  <g
     style="display:inline;fill:#fce94f;stroke:none"
     id="g3557-05-7"
     transform="matrix(0.84258135,0,-0.53523892,0.94555005,77.285412,3.5539521)" />
  <g
     id="layer10-5"
     inkscape:label="devices"
     style="display:inline"
     transform="matrix(0.85714282,0,0,0.85714282,-448.12289,386.35859)" />
  <g
     id="layer13-3"
     inkscape:label="places"
     style="display:inline"
     transform="matrix(0.85714282,0,0,0.85714282,-448.12289,386.35859)" />
  <g
     id="layer14-5"
     inkscape:label="mimes"
     transform="matrix(0.85714282,0,0,0.85714282,-448.12289,386.35859)" />
  <g
     id="layer15-6"
     inkscape:label="emblems"
     style="display:inline"
     transform="matrix(0.85714282,0,0,0.85714282,-448.12289,386.35859)" />
  <g
     id="g71291-2"
     inkscape:label="emotes"
     style="display:inline"
     transform="matrix(0.85714282,0,0,0.85714282,-448.12289,386.35859)" />
  <g
     id="g4953-9"
     inkscape:label="categories"
     style="display:inline"
     transform="matrix(0.85714282,0,0,0.85714282,-448.12289,386.35859)" />
  <g
     id="layer12-1"
     inkscape:label="actions"
     style="display:inline"
     transform="matrix(0.85714282,0,0,0.85714282,-448.12289,386.35859)" />
  <path
     d="M 6.5000001,11.5 C 3.1894057,11.5 0.5,14.189406 0.5,17.5 c 0,3.310595 2.6894057,6 6.0000001,6 3.3105944,0 6.0000049,-2.689405 5.9999999,-6 0,-3.310594 -2.6894055,-6 -5.9999999,-6 z"
     id="path2555-7-8-5-0"
     style="color:#000000;display:inline;overflow:visible;visibility:visible;opacity:1;fill:#cb4848;fill-opacity:1;fill-rule:nonzero;stroke:none;stroke-width:0.74999988;marker:none;enable-background:accumulate"
     inkscape:connector-curvature="0" />
  <g
     style="display:inline"
     id="g3532-1-2"
     transform="matrix(0.84258135,0,-0.53523892,0.94555005,90.073287,6.9049565)" />
  <g
     style="display:inline;fill:#fce94f;stroke:none"
     id="g3557-05-70"
     transform="matrix(0.84258135,0,-0.53523892,0.94555005,90.073287,6.9049565)" />
  <g
     id="layer10-9"
     inkscape:label="devices"
     style="display:inline"
     transform="matrix(0.85714282,0,0,0.85714282,-435.33501,389.70959)" />
  <g
     id="layer13-36"
     inkscape:label="places"
     style="display:inline"
     transform="matrix(0.85714282,0,0,0.85714282,-435.33501,389.70959)" />
  <g
     id="layer14-0"
     inkscape:label="mimes"
     transform="matrix(0.85714282,0,0,0.85714282,-435.33501,389.70959)" />
  <g
     id="layer15-62"
     inkscape:label="emblems"
     style="display:inline"
     transform="matrix(0.85714282,0,0,0.85714282,-435.33501,389.70959)" />
  <g
     id="g71291-6"
     inkscape:label="emotes"
     style="display:inline"
     transform="matrix(0.85714282,0,0,0.85714282,-435.33501,389.70959)" />
  <g
     id="g4953-1"
     inkscape:label="categories"
     style="display:inline"
     transform="matrix(0.85714282,0,0,0.85714282,-435.33501,389.70959)" />
  <g
     id="layer12-8"
     inkscape:label="actions"
     style="display:inline"
     transform="matrix(0.85714282,0,0,0.85714282,-435.33501,389.70959)" />
  <path
     inkscape:connector-curvature="0"
     id="path834"
     d="m 5.375,19 v -6 h 2.25 v 6 z"
     style="fill:#ffffff;fill-opacity:1;stroke:none;stroke-width:0.6123724px;stroke-linecap:butt;stroke-linejoin:miter;stroke-opacity:1" />
  <path
     inkscape:connector-curvature="0"
     id="path836"
     d="M 5.375,20.5 V 22 h 2.25 v -1.5 z"
     style="fill:#ffffff;fill-opacity:1;stroke:none;stroke-width:0.64951903px;stroke-linecap:butt;stroke-linejoin:miter;stroke-opacity:1" />
</svg>
